src/actions/24/insert-link.svg

<svg xmlns="http://www.w3.org/2000/svg" viewBox="0 0 24 24">
    <path d="M7 4v2H4v1h3v2h4V8H8V5h3V4H7zm6 0v1h3v3h-3v1h4V7h3V6h-3V4h-4zm-2 2v1h2V6h-2zm6 9v2h-2v1h2v2h1v-2h2v-1h-2v-2h-1z" style="fill:currentColor;fill-opacity:1;stroke:none;color:#050505;opacity:.7"/>
</svg>

<svg xmlns="http://www.w3.org/2000/svg" viewBox="0 0 24 24">
  <defs id="defs3051">
    <style type="text/css" id="current-color-scheme">
      .ColorScheme-Text {
        color:#363636;
      }
      </style>
  </defs>
 <path style="fill:currentColor;fill-opacity:1;stroke:none" 
     d="M 7 4 L 7 6 L 4 6 L 4 7 L 7 7 L 7 9 L 11 9 L 11 8 L 8 8 L 8 5 L 11 5 L 11 4 L 7 4 z M 13 4 L 13 5 L 16 5 L 16 8 L 13 8 L 13 9 L 17 9 L 17 7 L 20 7 L 20 6 L 17 6 L 17 4 L 13 4 z M 11 6 L 11 7 L 13 7 L 13 6 L 11 6 z M 17 15 L 17 17 L 15 17 L 15 18 L 17 18 L 17 20 L 18 20 L 18 18 L 20 18 L 20 17 L 18 17 L 18 15 L 17 15 z "
     class="ColorScheme-Text"
     />
</svg>
